X: 1600
T: Ann Ross Of Turriff
R: polka
M: 2/4
K: Amajor
|:A2 Ac|a2 fe|f/g/a ec|Bd cB|
A2 Ac|a2 fe|f/g/a e/d/c/B/|1 A2 A2:|2 A2 Ae||
|:f2 f/g/a|e2 c2|f/g/a ec|Bd cB|
[1 f2 f/g/a|e2 c2|f/g/a e/d/c/B/|A2 Ae:|
[2 a2 g2|f2 e2|f/g/a e/d/c/B/|A2 A2||

